!!!!SEGMENT: pl-kk--kk-i-376--001_rozycki-jacek--verbum-supernum.krn
!!!cenid: 17xx:1975
!!!COM: Różycki, Jacek
!!!COM-rismID: pe30020620
!!!CDT: ~1635-~1703
!!!CNT: Polish
!!!OTL: Verbum supernum
!!!PDT:
!!!AGN: Sacred
!!!SMS-siglum: PL-Kk
!!!SMS-shelfmark: Kk.I.376
!!!SMS-shelfwork: 001 W
!!!SMS-variant:
!!!SMS-altvar:
!!!NIFC-rismSourceID: 1001144507
!!!NIFC-rismChildID: 1001144508
!!!NIFC-islandoraID: pl-kk:6096
!!!URL-pdf-islandora: https://repozytorium.nifc.pl/islandora/object/pl-kk%3A6096/datastream/PDF/view
!!!URL-scan: https://polish.musicsources.pl/pl/lokalizacje/galeria/rekopisy/5988 @EN{Scan on Polish Music Sources Website} @PL{Skany w portalu Dziedzictwo Muzyki Polskiej w otwartym dostępie}
!!!ONB-nifc: UWAGA: utwory w zbiorze: 1. Verbum supernum, 2. Sactris solemniis, 3. Adoro Te devote
!!!AIN: 3 empty 1 tenor
!!!key:
**kern	**text	**text	**text	**text	**text	**text	**kern	**text	**text	**text	**text	**text	**text	**kern	**text	**text	**text	**text	**text	**text	**kern	**text	**text	**text	**text	**text	**text
*part4	*part4	*part4	*part4	*part4	*part4	*part4	*part3	*part3	*part3	*part3	*part3	*part3	*part3	*part2	*part2	*part2	*part2	*part2	*part2	*part2	*part1	*part1	*part1	*part1	*part1	*part1	*part1
*staff4	*staff4	*staff4	*staff4	*staff4	*staff4	*staff4	*staff3	*staff3	*staff3	*staff3	*staff3	*staff3	*staff3	*staff2	*staff2	*staff2	*staff2	*staff2	*staff2	*staff2	*staff1	*staff1	*staff1	*staff1	*staff1	*staff1	*staff1
*Iempty	*	*	*	*	*	*	*Itenor	*	*	*	*	*	*	*Iempty	*	*	*	*	*	*	*Iempty	*	*	*	*	*	*
*I"Baſso	*	*	*	*	*	*	*I"Tenore.	*	*	*	*	*	*	*	*	*	*	*	*	*	*	*	*	*	*	*	*
*I'B	*	*	*	*	*	*	*I'T	*	*	*	*	*	*	*I'A.	*	*	*	*	*	*	*I'S	*	*	*	*	*	*
*clefF4	*	*	*	*	*	*	*clefC4	*	*	*	*	*	*	*clefC3	*	*	*	*	*	*	*clefC1	*	*	*	*	*	*
*k[]	*	*	*	*	*	*	*k[]	*	*	*	*	*	*	*k[]	*	*	*	*	*	*	*k[]	*	*	*	*	*	*
*G:	*	*	*	*	*	*	*G:	*	*	*	*	*	*	*G:	*	*	*	*	*	*	*G:	*	*	*	*	*	*
*M3/2	*	*	*	*	*	*	*M3/2	*	*	*	*	*	*	*M3/2	*	*	*	*	*	*	*M3/2	*	*	*	*	*	*
=1	=1	=1	=1	=1	=1	=1	=1	=1	=1	=1	=1	=1	=1	=1	=1	=1	=1	=1	=1	=1	=1	=1	=1	=1	=1	=1	=1
*2\right	*	*	*	*	*	*	*2\right	*	*	*	*	*	*	*2\right	*	*	*	*	*	*	*	*	*	*	*	*	*
!LO:TX:t=P:problem=2\right&colon; global	!	!	!	!	!	!	!LO:TX:t=P:problem=2\right&colon; global	!	!	!	!	!	!	!LO:TX:t=P:problem=2\right&colon; global	!	!	!	!	!	!	!	!	!	!	!	!	!
2G\	Ver-	In	Qui-	Se	O	U-	2B\	Ver-	In	Qui-	Se	O	U-	2d\	1. Ver-	2. In	3. Qui-	4. Se	5. O	6. U-	2g/	1. Ver-	2. In	3. Qui-	4. Se	5. O	6. U-
*	*	*	*	*	*	*	*	*	*	*	*	*	*	*	*	*	*	*	*	*	*2\right	*	*	*	*	*	*
!	!	!	!	!	!	!	!	!	!	!	!	!	!	!	!	!	!	!	!	!	!LO:TX:t=P:problem=2\right&colon; global	!	!	!	!	!	!
2G\	-bum	mor-	-bus	nas-	Sa-	-ni	2G/	-bum	mor-	-bus	Naſ-	Sa-	-ni	2d\	-bum	Mor-	-bus	Nas-	Sa-	-ni	2bn\	-bum	mor-	-bus	Nas-	Sa-	-ni
2F#X\	Su-	-tem	Sub	-cens	-lu-	Tri-	2A/	Su-	-tem	Sub	-cens	-lu-	Tri-	2d\	Su-	-tem	Sub	-cens	-lu-	Tri-	2dd\	Su-	-tem	Sub	-cens	-lu-	Tri-
=2	=2	=2	=2	=2	=2	=2	=2	=2	=2	=2	=2	=2	=2	=2	=2	=2	=2	=2	=2	=2	=2	=2	=2	=2	=2	=2	=2
1E\	-per-	a	bi-	de-	-ta-	-no-	1B\	-per-	a	bi-	de-	-ta-	-no-	1e\	-per-	à	bi-	de-	-ta-	-no-	1gg\	-per-	à	bi-	de-	-ta-	-no-
!LO:TX:a:t=P:problem=# above	!	!	!	!	!	!	!	!	!	!	!	!	!	!	!	!	!	!	!	!	!	!	!	!	!	!	!
2A#\	-num	diſ-	-na	-dit	-ris	-q(ue)	2A/	-num	diſ-	-na	-dit	-ris	-q(ue)	2e\	-num	dis-	-na	-dit	-ris	-q(ue)	2cc#X\	-num	dis-	-na	-dit	-ris	-q(ue)
=3-	=3	=3	=3	=3	=3	=3	=3	=3	=3	=3	=3	=3	=3	=3	=3	=3	=3	=3	=3	=3	=3	=3	=3	=3	=3	=3	=3
2.D/	p(ro)-	-ci-	spe-	so-	ho-	Do-	2.A/	p(ro)-	-ci-	spe-	ſo-	ho-	Do-	2.f\	pro-	-ci-	Spe-	so-	ho-	Do-	2.dd\	pro-	-ci-	spe-	so-	ho-	Do-
4D/	-di-	-pu-	-ci-	-ci-	-sti-	-mi-	4A/	-di-	-pu-	-ci-	-ci-	-ſti-	-mi-	4f\	-di-	-pu-	-ci-	-ci-	-sti-	-mi-	4dd\	-di-	-pu-	-ci-	-ci-	-sti-	-mi-
2D,</	-ens,	-lo,	-e,	-um,	-a,	-no,	2A,</	-ens,	-lo,	-e,	-um,	-a,	-no,	2f\	-ens	-lo	-e	-um.	-a	-no	2dd\	-ens	-lo	-e	-um	-a	-no
=4	=4	=4	=4	=4	=4	=4	=4	=4	=4	=4	=4	=4	=4	=4	=4	=4	=4	=4	=4	=4	=4	=4	=4	=4	=4	=4	=4
2D/	nec	Su-	car-	con-	quae	Sit	2A/	nec	Su-	car-	con-	quae	Sit	2f\	nec	Su-	car-	con-	quae	Sit	2dd\	nec	Su-	car-	con-	quae	Sit
2D/	Pa-	-is	-nem	-ves-	cae-	Sem-	2d\	Pa-	-is	-nem	-veſ-	cae-	Sem-	2.f\	Pa-	-is	-nem	-ves-	cae-	Sem-	2.a\	Pa-	-is	-nem	-ves-	cae-	Sem-
2D/	-tris	tra-	de-	-cens	-li	-pi-	2d\	-tris	tra-	de-	-cens	-li	-pi-	.	.	.	.	.	.	.	.	.	.	.	.	.	.
.	.	.	.	.	.	.	.	.	.	.	.	.	.	4f\	-tris	tra-	de-	-cens	-li	-pi-	4b\	-tris	tra-	de-	-cens	-li	-pi-
=5-	=5	=5	=5	=5	=5	=5	=5	=5	=5	=5	=5	=5	=5	=5	=5	=5	=5	=5	=5	=5	=5	=5	=5	=5	=5	=5	=5
1AA/	lin-	-den-	-dit	in	pan-	-ter-	(2c\	lin-	-den-	-dit	in	pan-	-ter-	2e\	Lin-	-den-	-dit	in	pan-	-ter-	2cc\	lin-	-den-	-dit	in	pan-	-ter-
.	.	.	.	.	.	.	2B\)	-qu-	.	et	.	.	.	2.c/	-qu-	-dus	et	e-	-dis	-na.	2.e/	-qu-	-dus	et	e-	-dis	-na
2AA/	-qu-	-dus	et	-e-	-dis	-na	2A/	-ens	-dus	San-	-e-	-dis	-na	.	.	.	.	.	.	.	.	.	.	.	.	.	.
.	.	.	.	.	.	.	.	.	.	.	.	.	.	4d\	-ens	a-	San-	-du-	o-	glo-	4f/	-ens	a-	San-	-du-	o-	glo-
=6	=6	=6	=6	=6	=6	=6	=6	=6	=6	=6	=6	=6	=6	=6	=6	=6	=6	=6	=6	=6	=6	=6	=6	=6	=6	=6	=6
2GG/	-ens	-a-	-San-	-du-	-o-	-glo-	1B\	dex-	-a-	-gu-	-du-	-o-	glo-	1e\	dex-	-mu-	-gu-	-li-	-sti-	-ri-	2g/	dex-	-mu-	-gu-	-li-	-sti-	-ri-
2.BB/	-dex-	-mu-	-gu-	.	.	.	.	.	.	.	.	.	.	.	.	.	.	.	.	.	2.f#X/	-te-	.	-i-	.	.	.
.	.	.	.	.	.	.	2B\	-te-	-mu-	-i-	-li-	-ſti-	-ri-	2d#X\	-te-	.	-i-	.	.	.	.	.	.	.	.	.	.
4BB/	-te	.	-i-	-li-	-ſti-	-ri-	.	.	.	.	.	.	.	.	.	.	.	.	.	.	4e/	.	.	.	.	.	.
=7-	=7	=7	=7	=7	=7	=7	=7-	=7	=7	=7	=7	=7	=7	=7	=7	=7	=7	=7	=7	=7	=7	=7	=7	=7	=7	=7	=7
1.E\	-ram	-lis,	-nem,	-um,	-um,	-a,	1.B\	-ram,	-lis,	-nem,	-um,	-um,	-a,	1.e\	-ram	-lis	-nem.	-um.	-um.	-a	1.e/	-ram	-lis	-nem	-um.	-um	-a
=8!|:	=8!|:	=8!|:	=8!|:	=8!|:	=8!|:	=8!|:	=8!|:	=8!|:	=8!|:	=8!|:	=8!|:	=8!|:	=8!|:	=8!|:	=8!|:	=8!|:	=8!|:	=8!|:	=8!|:	=8!|:	=8!|:	=8!|:	=8!|:	=8!|:	=8!|:	=8!|:	=8!|:
!	!	!	!	!	!	!	!	!	!	!	!	!	!	!LO:TX:a:t=repete	!	!	!	!	!	!	!LO:TX:a:t=repete	!	!	!	!	!	!
2E\	ad	pri-	Ut	Se	bel-	Qui	2B\	ad	pri-	Ut	Se	bel-	Qui	2e\	ad	pri-	Ut	Se	bel-	Qui	2g/	ad	pri-	Ut	Se	bel-	Qui
2D/	op-	-us	du-	mo-	-la	vi-	2d\	op-	-us	du-	mo-	-la	Vi-	2fn\	op-	-us	du-	mo-	-la	Vi-	2a\	op-	-us	du-	mo-	-la	vi-
2BB/	-us	in	-pli-	-ri-	p(re)-	-tam	2d\	-us	in	-pli-	-ri-	pre-	-tam	2g\	-us	in	-pli-	-ri-	pre-	-tam	2b\	-us	in	-pli-	-ri-	pre-	-tam
=9	=9	=9	=9	=9	=9	=9	=9	=9	=9	=9	=9	=9	=9	=9	=9	=9	=9	=9	=9	=9	=9	=9	=9	=9	=9	=9	=9
1AA/	Su-	Vi-	-cis	-ens	-munt	Si-	2e\	ſu-	Vi-	-cis	-ens	-munt	Si-	1a\	Su-	Vi-	-cis	-ens	-munt	Si-	1cc\	Su-	vi-	-cis	-ens	-munt	Si-
.	.	.	.	.	.	.	2c\	.	.	.	.	.	.	.	.	.	.	.	.	.	.	.	.	.	.	.	.
2D/	-um	-tae	Sub-	in	ho-	-ne	2B\	-um	-tae	Sub-	in	ho-	-ne	2f\	-um	-tae	Sub-	in	ho-	-ne	2dd\	-um	-tae	Sub-	in	ho-	-ne
=10	=10	=10	=10	=10	=10	=10	=10	=10	=10	=10	=10	=10	=10	=10	=10	=10	=10	=10	=10	=10	=10	=10	=10	=10	=10	=10	=10
!	!	!	!	!	!	!	!LO:TX:t=P:problem=# below	!	!	!	!	!	!	!	!	!	!	!	!	!	!	!	!	!	!	!	!
2.E\	e-	fer-	-ſtan-	p(re)-	-ſti-	ter-	2.G#X/	e-	fer-	-stan-	pre-	-ſti-	ter-	2.e\	e-	fer-	-stan-	pre-	-sti-	ter-	2.b\	e-	fer-	-stan-	pre-	-sti-	ter-
4E\	-xi-	-cu-	-ti-	-ti-	-li-	-mi-	4G#/	-xi-	-cu-	-ti-	-ti-	-li-	-m(i-	4e\	-xi-	-cu-	-ti-	-ti-	-li-	-mi-	4b\	-xi-	-cu-	-ti-	-ti-	-li-	-mi-
2E,<\	-ens,	-lo	-ae,	-um,	-a	-no,	2G#/	-ens	-lo	-ae,	-um,	-a	-no)	2e\	-ens	-lo	-ae	-um	-a.	-no	2b\	-ens	-lo	-ae	-um	-a	-no
=11	=11	=11	=11	=11	=11	=11	=11	=11	=11	=11	=11	=11	=11	=11	=11	=11	=11	=11	=11	=11	=11	=11	=11	=11	=11	=11	=11
2C/	Ve-	se	to-	Se	da	No-	2G/	Ve-	se	to-	se	da	no-	2e\	Ve-	se	to-	Se	da	No-	2ee\	Ve-	se	to-	Se	da	No-
2D/	-nit	tra-	-tum	re-	ro-	-bis	2F#X/	-nit	tra-	-tum	re-	ro-	-bis	2d\	-nit	tra-	-tum	re-	ro-	-bis	2a\	-nit	tra-	-tum	re-	ro-	-bis
2BB/	ad	-di-	ci-	-gnans	-bur	do-	2G/	ad	-di-	ci-	-gnans	-bur	do-	2d\	ad	-di-	ci-	-gnans	-bur	do-	2dd\	ad	-di-	ci-	-gnans	-bur	do-
=12	=12	=12	=12	=12	=12	=12	=12-	=12	=12	=12	=12	=12	=12	=12	=12	=12	=12	=12	=12	=12	=12	=12	=12	=12	=12	=12	=12
1C/	Vi-	-dit	-ba-	dat	fer	-net	1E/	Vi-	-dit	-ba-	dat	fer	-net	1c\	Vi-	-dit	-ba-	dat	fer	-net	1g\	vi-	-dit	-ba-	dat	fer	-net
2BB/	-tae	dis-	-ret	in	au-	in	2G/	-tae	dis-	-ret	in	au-	in	2d\	-tae	dis-	-ret	in	au-	in	2b\	-tae	dis-	-ret	in	au-	in
=13-	=13	=13	=13	=13	=13	=13	=13	=13	=13	=13	=13	=13	=13	=13	=13	=13	=13	=13	=13	=13	=13	=13	=13	=13	=13	=13	=13
2C/	Ve-	-ci-	ho-	p(rae)-	-xi-	Pa-	1G/	Ve-	-ci-	ho-	prae-	-xi-	Pa-	2e\	Ve-	-ci-	ho-	prae-	-xi-	Pa-	1a\	ve-	-ci-	ho-	prae-	-xi-	Pa-
2.D/	.	.	.	.	.	.	.	.	.	.	.	.	.	2.d\	-spe-	.	.	.	.	.	.	.	.	.	.	.	.
!	!	!	!	!	!	!	!LO:TX:b:t=P:problem=# below	!	!	!	!	!	!	!	!	!	!	!	!	!	!	!	!	!	!	!	!
.	.	.	.	.	.	.	2F#X/	-spe-	-pu-	-mi-	-mi-	-li-	-tri-	.	.	-pu-	-mi-	-mi-	-li-	-tri-	2a\	-spe-	-pu-	-mi-	-mi-	-li-	-tri-
4D/	-spe-	-pu-	-mi-	-mi-	-li-	-tri-	.	.	.	.	.	.	.	4d\	.	.	.	.	.	.	.	.	.	.	.	.	.
=14-	=14	=14	=14	=14	=14	=14	=14	=14	=14	=14	=14	=14	=14	=14	=14	=14	=14	=14	=14	=14	=14	=14	=14	=14	=14	=14	=14
!	!	!	!	!	!	!	!	!	!	!	!	!	!	!LO:TX:b:t=amen	!	!	!	!	!	!	!LO:TX:b:t=amen	!	!	!	!	!	!
0GG/;	-ram.	-lis	-nem	-um	-um	-a	0G/	-ram	-lis	-nem	-um	-um	-a.	0d\;	-ram.	-lis	-nem.	-um.	-um.	-a	0g\;	-ram.	-lis	-nem.	-um	-um.	-a
=:|!	=:|!	=:|!	=:|!	=:|!	=:|!	=:|!	=:|!	=:|!	=:|!	=:|!	=:|!	=:|!	=:|!	=:|!	=:|!	=:|!	=:|!	=:|!	=:|!	=:|!	=:|!	=:|!	=:|!	=:|!	=:|!	=:|!	=:|!
*-	*-	*-	*-	*-	*-	*-	*-	*-	*-	*-	*-	*-	*-	*-	*-	*-	*-	*-	*-	*-	*-	*-	*-	*-	*-	*-	*-
!!!system-decoration: [(s1,s2,s3,s4)]
!!!RDF**kern: > = above
!!!RDF**kern: < = below
!!!EED: Leszek Kubiak
!!!EEV: 2021-02-27
!!!ENC: Marcin Jachim
!!!END: 2021-02-08
!!!YEC: Copyright 2022 Narodowy Instytut Fryderyka Chopina (https://polishscores.org)
!!!YEM: License CC-BY-4.0 (https://creativecommons.org/licenses/by/4.0)
